X:1233
T:Polka No. 42 efter Olof Persson Norrgren
R:Polka
O:Billeberga, Skåne
S:efter Olof Persson Norrgren
M:2/4
L:1/16
K:C
N:No 42 i ett fotograferat nothäfte. Bilden heter IMG_2601.JPG. Korrekturläsning pågår.
|: e2 | e2G2 c2E2 | G2F2 FED2 |d2G2 B2G2 | e2c2 cBcd | e2G2 c2E2 | G2F2 FED2 | d2G2 B2G2 | c2c2c2 :|[K:F]
|: f2 | f4 e2d2 | c2A2 {E2}F4 | F2E2 d2c2 | F2Ac f4 | a4 g2f2 | e2d2 {E}F4 | F2E2 d2c2 | F2Ac f2 :|
(:musicend:)
[[!Ackord]]
(:music:)
